public/static/img/bottom/yonghu1.svg

<svg xmlns="http://www.w3.org/2000/svg" width="28" height="28" viewBox="0 0 28 28" fill="none">
  <g clip-path="url(#clip0_54_1989)">
    <g filter="url(#filter0_d_54_1989)">
      <path fill-rule="evenodd" clip-rule="evenodd" d="M19.33 4.2H8C5.90132 4.2 4.2 5.90132 4.2 7.99999V19.33C4.2 21.4287 5.90132 23.13 7.99999 23.13H19.33C21.4287 23.13 23.13 21.4287 23.13 19.33V8C23.13 5.90132 21.4287 4.2 19.33 4.2ZM8 2C4.68629 2 2 4.68629 2 7.99999V19.33C2 22.6437 4.68629 25.33 7.99999 25.33H19.33C22.6437 25.33 25.33 22.6437 25.33 19.33V8C25.33 4.68629 22.6437 2 19.33 2H8Z" fill="#888888"/>
    </g>
    <path d="M9.04322 21.2109C8.32141 20.8984 7.63742 20.515 7 20.0695C8.45472 17.8212 10.9844 16.3333 13.8616 16.3333C16.6608 16.3333 19.1311 17.7416 20.6025 19.8884C19.9768 20.3509 19.3032 20.7523 18.5904 21.0838C17.5308 19.6194 15.8074 18.6667 13.8616 18.6667C11.8599 18.6667 10.0939 19.6748 9.04322 21.2109ZM13.7424 15.1667C11.4872 15.1667 9.65903 13.3385 9.65903 11.0833C9.65903 8.82817 11.4872 7 13.7424 7C15.9975 7 17.8257 8.82817 17.8257 11.0833C17.8257 13.3385 15.9975 15.1667 13.7424 15.1667ZM13.7424 12.8333C14.7088 12.8333 15.4924 12.0498 15.4924 11.0833C15.4924 10.1168 14.7088 9.33333 13.7424 9.33333C12.7759 9.33333 11.9924 10.1168 11.9924 11.0833C11.9924 12.0498 12.7759 12.8333 13.7424 12.8333Z" fill="#888888"/>
  </g>
  <defs>
    <filter id="filter0_d_54_1989" x="-2" y="2" width="31.33" height="31.3301" filterUnits="userSpaceOnUse" color-interpolation-filters="sRGB">
      <feFlood flood-opacity="0" result="BackgroundImageFix"/>
      <feColorMatrix in="SourceAlpha" type="matrix" values="0 0 0 0 0 0 0 0 0 0 0 0 0 0 0 0 0 0 127 0" result="hardAlpha"/>
      <feOffset dy="4"/>
      <feGaussianBlur stdDeviation="2"/>
      <feComposite in2="hardAlpha" operator="out"/>
      <feColorMatrix type="matrix" values="0 0 0 0 0 0 0 0 0 0 0 0 0 0 0 0 0 0 0.25 0"/>
      <feBlend mode="normal" in2="BackgroundImageFix" result="effect1_dropShadow_54_1989"/>
      <feBlend mode="normal" in="SourceGraphic" in2="effect1_dropShadow_54_1989" result="shape"/>
    </filter>
    <clipPath id="clip0_54_1989">
      <rect width="28" height="28" fill="white"/>
    </clipPath>
  </defs>
</svg>

<svg xmlns="http://www.w3.org/2000/svg" width="28" height="28" fill="none"><g clip-path="url(#a)"><g filter="url(#b)"><path fill-rule="evenodd" clip-rule="evenodd" d="M19.33 4.2H8A3.8 3.8 0 0 0 4.2 8v11.33a3.8 3.8 0 0 0 3.8 3.8h11.33a3.8 3.8 0 0 0 3.8-3.8V8a3.8 3.8 0 0 0-3.8-3.8ZM8 2a6 6 0 0 0-6 6v11.33a6 6 0 0 0 6 6h11.33a6 6 0 0 0 6-6V8a6 6 0 0 0-6-6H8Z" fill="#888"/></g><path d="M9.043 21.21A11.64 11.64 0 0 1 7 20.07a8.16 8.16 0 0 1 6.862-3.737 8.156 8.156 0 0 1 6.74 3.555c-.625.463-1.299.864-2.012 1.196a5.825 5.825 0 0 0-4.728-2.417 5.827 5.827 0 0 0-4.819 2.544Zm4.7-6.043a4.083 4.083 0 1 1 0-8.167 4.083 4.083 0 0 1 0 8.167Zm0-2.334a1.75 1.75 0 1 0 0-3.5 1.75 1.75 0 0 0 0 3.5Z" fill="#888"/></g><defs><clipPath id="a"><path fill="#fff" d="M0 0h28v28H0z"/></clipPath><filter id="b" x="-2" y="2" width="31.33" height="31.33" filterUnits="userSpaceOnUse" color-interpolation-filters="sRGB"><feFlood flood-opacity="0" result="BackgroundImageFix"/><feColorMatrix in="SourceAlpha" values="0 0 0 0 0 0 0 0 0 0 0 0 0 0 0 0 0 0 127 0" result="hardAlpha"/><feOffset dy="4"/><feGaussianBlur stdDeviation="2"/><feComposite in2="hardAlpha" operator="out"/><feColorMatrix values="0 0 0 0 0 0 0 0 0 0 0 0 0 0 0 0 0 0 0.25 0"/><feBlend in2="BackgroundImageFix" result="effect1_dropShadow_54_1989"/><feBlend in="SourceGraphic" in2="effect1_dropShadow_54_1989" result="shape"/></filter></defs></svg>
